picto/bus-right-framed.svg

<svg class="color-immutable" width="30" height="30" viewBox="0 0 30 30" fill="none" xmlns="http://www.w3.org/2000/svg"><path d="M30 0H0V30H30V0Z" fill="#2D327D"/><path d="M25.5 3C26.325 3 27 3.675 27 4.5V25.5C27 26.325 26.325 27 25.5 27H4.5C3.675 27 3 26.325 3 25.5V4.5C3 3.675 3.675 3 4.5 3H25.5ZM25.5 2.625H4.5C3.46613 2.625 2.625 3.46613 2.625 4.5V25.5C2.625 26.5339 3.46613 27.375 4.5 27.375H25.5C26.5339 27.375 27.375 26.5339 27.375 25.5V4.5C27.375 3.46613 26.5339 2.625 25.5 2.625Z" fill="white"/><path d="M9.37522 11.2499H6V10.5H21.0743C21.6852 10.5 22.2197 10.91 22.3781 11.4999L23.954 17.3694C23.9848 17.4835 24.0003 17.6012 24.0003 17.7193V21.525C24.0003 21.8562 23.7316 22.125 23.4004 22.125H16.4244C16.0931 22.125 15.8245 21.8562 15.8245 21.525C15.8245 21.5212 15.8245 21.5176 15.8245 21.5139C15.825 21.4926 15.8253 21.4714 15.8253 21.4499C15.8253 19.5456 14.2797 17.9999 12.3751 17.9999C10.4708 17.9999 8.92522 19.5456 8.92522 21.4499C8.92522 21.4713 8.92545 21.4925 8.92575 21.5139C8.92605 21.5176 8.92605 21.5213 8.92605 21.525C8.92605 21.8562 8.6571 22.125 8.32582 22.125H6V16.4999H9.37522C9.58222 16.4999 9.75015 16.3319 9.75015 16.1249V11.6249C9.75015 11.4179 9.58222 11.2499 9.37522 11.2499ZM20.4377 17.625C20.4377 17.832 20.6056 17.9999 20.8129 17.9999H22.858C23.065 17.9999 23.2329 17.832 23.2329 17.625C23.2329 17.5921 23.2285 17.5595 23.22 17.5276L21.6338 11.6193C21.5635 11.3572 21.3258 11.1749 21.0542 11.1749H21.0377C20.7067 11.1749 20.4377 11.4437 20.4377 11.775V17.625ZM18.4876 17.4751C18.4876 17.8061 18.7567 18.075 19.0876 18.075C19.4189 18.075 19.6879 17.8061 19.6879 17.4751V11.775C19.6879 11.4437 19.4189 11.1749 19.0876 11.1749C18.7567 11.1749 18.4876 11.4437 18.4876 11.775V17.4751ZM16.5376 17.4751C16.5376 17.8061 16.8066 18.075 17.1376 18.075C17.4688 18.075 17.7378 17.8061 17.7378 17.4751V11.775C17.7378 11.4437 17.4689 11.1749 17.1376 11.1749C16.8066 11.1749 16.5376 11.4437 16.5376 11.775V17.4751ZM10.5002 16.1249C10.5002 16.3319 10.6682 16.4999 10.8751 16.4999H15.4126C15.6196 16.4999 15.7878 16.3319 15.7878 16.1249V11.6249C15.7878 11.4179 15.6196 11.2499 15.4126 11.2499H10.8751C10.6682 11.2499 10.5002 11.4179 10.5002 11.6249V16.1249Z" fill="white"/><path d="M12.3514 18.8472C13.8004 18.8472 14.9766 20.0232 14.9766 21.472C14.9766 22.921 13.8004 24.0972 12.3514 24.0972C10.9024 24.0972 9.72656 22.921 9.72656 21.472C9.72656 20.0232 10.9024 18.8472 12.3514 18.8472ZM12.3514 22.9158C13.1795 22.9158 13.8516 22.2437 13.8516 21.4157C13.8516 20.5878 13.1796 19.9158 12.3514 19.9158C11.5236 19.9158 10.8515 20.5878 10.8515 21.4157C10.8515 22.2437 11.5236 22.9158 12.3514 22.9158Z" fill="white"/></svg>

<svg class="color-immutable" width="30" height="30" viewBox="0 0 30 30" fill="none" xmlns="http://www.w3.org/2000/svg"><g clip-path="url(#a)"><path d="M30 0H0v30h30V0Z" fill="#2D327D"/><path d="M25.5 3c.825 0 1.5.675 1.5 1.5v21c0 .825-.675 1.5-1.5 1.5h-21c-.825 0-1.5-.675-1.5-1.5v-21C3 3.675 3.675 3 4.5 3h21Zm0-.375h-21A1.877 1.877 0 0 0 2.625 4.5v21c0 1.034.841 1.875 1.875 1.875h21a1.877 1.877 0 0 0 1.875-1.875v-21A1.877 1.877 0 0 0 25.5 2.625Z" fill="#fff"/><path d="M9.375 11.25H6v-.75h15.074c.611 0 1.146.41 1.304 1l1.576 5.87c.03.113.046.231.046.35v3.805a.6.6 0 0 1-.6.6h-6.976a.6.6 0 0 1-.6-.6v-.011l.001-.064a3.451 3.451 0 1 0-6.9.075.6.6 0 0 1-.6.6H6V16.5h3.375a.375.375 0 0 0 .375-.375v-4.5a.375.375 0 0 0-.375-.375Zm11.063 6.375c0 .207.168.375.375.375h2.045a.375.375 0 0 0 .362-.472l-1.586-5.909a.6.6 0 0 0-.58-.444h-.016a.6.6 0 0 0-.6.6v5.85Zm-1.95-.15a.6.6 0 0 0 1.2 0v-5.7a.6.6 0 0 0-1.2 0v5.7Zm-1.95 0a.6.6 0 0 0 1.2 0v-5.7a.6.6 0 0 0-1.2 0v5.7Zm-6.038-1.35c0 .207.168.375.375.375h4.538a.375.375 0 0 0 .375-.375v-4.5a.375.375 0 0 0-.375-.375h-4.538a.375.375 0 0 0-.375.375v4.5Z" fill="#fff"/><path d="M12.351 18.847a2.626 2.626 0 0 1 0 5.25 2.626 2.626 0 0 1 0-5.25Zm0 4.069a1.5 1.5 0 1 0 0-3.002 1.5 1.5 0 0 0 0 3.002Z" fill="#fff"/></g><defs><clipPath id="a"><path fill="#fff" d="M0 0h30v30H0z"/></clipPath></defs></svg>
